images/network-image2.svg

<svg width="24" height="28" viewBox="0 0 24 28" fill="none" xmlns="http://www.w3.org/2000/svg">
<path fill-rule="evenodd" clip-rule="evenodd" d="M1.35225 0.237091C2.077 -0.112337 2.90802 -0.0748034 3.60529 0.344932L17.4772 8.42299L13.504 12.4147L1.35225 0.237091ZM0 2.42141C0 2.04978 0.082467 1.68872 0.235771 1.36414L12.3848 13.5391L0.237885 25.7437C0.0829956 25.426 0 25.0702 0 24.697V2.42141ZM13.5056 14.6619L1.37344 26.8517C1.69538 27.0008 2.03794 27.0658 2.37996 27.0658C2.80234 27.0658 3.22367 26.9648 3.60534 26.7354L17.4799 18.6452L13.5056 14.6619ZM22.7456 11.4907C22.7504 11.4933 22.7556 11.4965 22.7604 11.4996C23.4767 11.9342 23.9044 12.6944 23.9044 13.5328C23.9044 14.3712 23.4767 15.1314 22.7604 15.5664C22.7556 15.5691 18.8966 17.8189 18.8966 17.8189L14.6242 13.5375L18.894 9.24766L22.7456 11.4907Z" fill="#495567"/>
</svg>

<svg width="24" height="28" fill="none" xmlns="http://www.w3.org/2000/svg"><path fill-rule="evenodd" clip-rule="evenodd" d="M1.352.237a2.348 2.348 0 0 1 2.253.108l13.872 8.078-3.973 3.992L1.352.237ZM0 2.421c0-.371.082-.732.236-1.057L12.385 13.54.238 25.744A2.381 2.381 0 0 1 0 24.697V2.421Zm13.506 12.24L1.373 26.852c.322.15.665.215 1.007.215.422 0 .844-.101 1.225-.33l13.875-8.09-3.974-3.984Zm9.24-3.17a2.36 2.36 0 0 1 1.159 2.042c0 .838-.428 1.598-1.145 2.033l-3.863 2.253-4.273-4.281 4.27-4.29 3.852 2.243Z" fill="#495567"/></svg>
